X: 2566
T: Ballykett Courthouse
R: reel
M: 4/4
K: Gmajor
|:G|d2 ed dBAG|EAAG A3 B|eged dBAG|EGGF G3:|
|:g|g2 fg edBd|eaag agef|g2 fg edBd|eggf g3:|
~|EG2F G2 G:|~ & ~|eg2f g2 g:|
~|EGGF G2 G2:|~ & ~|eggf g2 g2:|

